icons/bhi_logout.svg

<svg xmlns="http://www.w3.org/2000/svg" viewBox="0 0 512 512" enable-background="new 0 0 512 512"><path fill="#010101" d="M368.8 320.1l31.3 31.3 111.7-111.7-111.7-111.7-31.3 31.3 58.1 58.1h-216.7v44.6h216.7zM44.7 448h241.5c24.6 0 44.7-20.1 44.7-44.7v-89.3h-44.7v89.4h-241.5v-326.7h241.5v89.3h44.7v-89.3c0-24.6-20.1-44.7-44.7-44.7h-241.5c-24.6 0-44.7 20.1-44.7 44.7v326.6c0 24.6 20.1 44.7 44.7 44.7z"/></svg>

<?xml version="1.0" encoding="utf-8"?>
<!-- Generator: Adobe Illustrator 19.2.0, SVG Export Plug-In . SVG Version: 6.00 Build 0)  -->
<svg version="1.1" id="Layer_1" xmlns="http://www.w3.org/2000/svg" xmlns:xlink="http://www.w3.org/1999/xlink" x="0px" y="0px"
	 viewBox="0 0 512 512" enable-background="new 0 0 512 512" xml:space="preserve">
<polygon fill="#010101" points="368.8,320.1 400.1,351.4 511.8,239.7 400.1,128 368.8,159.3 426.9,217.4 210.2,217.4 210.2,262 
	426.9,262 "/>
<path fill="#010101" d="M44.7,448h241.5c24.6,0,44.7-20.1,44.7-44.7V314h-44.7v89.4H44.7V76.7h241.5V166h44.7V76.7
	c0-24.6-20.1-44.7-44.7-44.7H44.7C20.1,32,0,52.1,0,76.7v326.6C0,427.9,20.1,448,44.7,448z"/>
</svg>
